packages/elvis-assets-icons/icons/svg/src/unlock.svg

<svg width="24" height="24" viewBox="0 0 24 24" fill="none" xmlns="http://www.w3.org/2000/svg">
<g clip-path="url(#clip0)">
<path d="M8.24927 24C7.00827 24 5.99927 22.991 5.99927 21.75V11.25C5.99927 10.009 7.00827 9 8.24927 9H10.4993V6C10.4993 3.519 8.48027 1.5 5.99927 1.5C3.51827 1.5 1.49927 3.519 1.49927 6V9.75C1.49927 10.164 1.16327 10.5 0.749268 10.5C0.335268 10.5 -0.000732422 10.164 -0.000732422 9.75V6C-0.000732422 2.692 2.69127 0 5.99927 0C9.30727 0 11.9993 2.692 11.9993 6V9H21.7493C22.9903 9 23.9993 10.009 23.9993 11.25V21.75C23.9993 22.991 22.9903 24 21.7493 24H8.24927ZM8.24927 10.5C7.83527 10.5 7.49927 10.836 7.49927 11.25V21.75C7.49927 22.164 7.83527 22.5 8.24927 22.5H21.7493C22.1633 22.5 22.4993 22.164 22.4993 21.75V11.25C22.4993 10.836 22.1633 10.5 21.7493 10.5H8.24927Z" fill="black"/>
<path d="M14.9993 18.75C14.5853 18.75 14.2493 18.414 14.2493 18V15C14.2493 14.586 14.5853 14.25 14.9993 14.25C15.4133 14.25 15.7493 14.586 15.7493 15V18C15.7493 18.414 15.4133 18.75 14.9993 18.75Z" fill="black"/>
</g>
<defs>
<clipPath id="clip0">
<path d="M-0.000732422 0H23.9993V24H-0.000732422V0Z" fill="white"/>
</clipPath>
</defs>
</svg>

<svg width="24" height="24" fill="none" xmlns="http://www.w3.org/2000/svg"><g clip-path="url(#clip0)" fill="#000"><path d="M8.25 24A2.252 2.252 0 016 21.75v-10.5A2.252 2.252 0 018.25 9h2.25V6c0-2.481-2.02-4.5-4.5-4.5A4.505 4.505 0 001.5 6v3.75a.75.75 0 01-1.5 0V6C0 2.692 2.69 0 6 0c3.307 0 6 2.692 6 6v3h9.75A2.252 2.252 0 0124 11.25v10.5A2.252 2.252 0 0121.75 24H8.25zm0-13.5a.75.75 0 00-.75.75v10.5c0 .414.335.75.75.75h13.5a.75.75 0 00.75-.75v-10.5a.75.75 0 00-.75-.75H8.25z"/><path d="M15 18.75a.75.75 0 01-.75-.75v-3a.75.75 0 011.5 0v3a.75.75 0 01-.75.75z"/></g><defs><clipPath id="clip0"><path d="M0 0h24v24H0V0z" fill="#fff"/></clipPath></defs></svg>
